X: 17739
T: Homesteaders
R: waltz
M: 3/4
K: Gmajor
DGA|B2 G2 D2|E4 GA|B2 G2 d2|d4 gf|e6|
d4 c2|B2 c2 d2|G4 GA|B2 G2 e2|d4 BA|
G2 A2 B2|E4 GA|B3A G2|G2 E3D|D2 E2 G2|
A4 GA|B3A G2|G2 E3D|D2 E2 G2|G4||
gf|e3f g2|e4 dc|d2 A2 c2|B4 GA|B2 e3B|
B2 d2 BA|G2 A2 B2|A4 gf|e3f g2|e4 dc|
d2 A2 c2|B4 GA|B2 e3B|B2 A2 G2|E6|F3||

